X:382
T:Wissahickon Drive
Z: id:dc-reel-376
M:C
L:1/8
K:A Major
AF|EFAB cBAB|ceef ecBA|F2dF eFde|fedf ecBA|!
EFAB cBAB|ceef ecBA|f3a e2cA|BAGB A2:|!
ce|a2ga baga|f3e feaf|ecc2 acec|fcec BA|!
[1 ce|a2ga baga|f2de feaf|ecc2 afec|BABc AB:|!
[2 Bc|ABce a2ga|f2de feaf|ecc2 afec|BABc A2|]!

